X:1
T: Miss Wright of Laton
C:
R:Reel
Q: 232
K:D
M:4/4
L:1/8
|:f|d2 AG FD AF|E=c Gc E=C CE|d2 AG FD AF|GE =cE D1/2D1/2D Df|
d2 AG FD AF|E=c Gc E=C CE|d2 AG FD AF|GE =cE D1/2D1/2D Dg|
a1/2g1/2f1/2e1/2 da fg af|g1/2f1/2e1/2d1/2 =cg ef ge|af df fg af|ge =ce d1/2d1/2d dg|
a1/2g1/2f1/2e1/2 da fg af|g1/2f1/2e1/2d1/2 =cg ef ge|fd ge af bg|e=c ge d1/2d1/2d d:|
